X:1
T:Tell Out the News
T:Tell Out the News
T:H. W. Porter
T:Nellie A. Davidson, 1908
T:Public Domain Courtesy of the Cyber Hymnal™
C:H. W. Porter
Z:Public Domain
Z:Courtesy of the Cyber Hymnal™
%%score ( 1 2 ) ( 3 4 )
L:1/8
Q:1/4=97
M:4/4
K:F
V:1 treble 
V:2 treble 
V:3 bass 
V:4 bass 
V:1
 (CF) | [FA]>[FA] [FA]>[FB] [FA]2 [EG]2 | F6 (FA) | [Fc]>[Fc] [Fc]>[Fc] [Fc]2 [EB]2 | [FA]6 [Fc]2 | %5
w: 1.~The *|fields are white, the har- vest|waits The *|reap- er’s hand to gar- ner|in The|
w: 2.~Go *|ye in- to the whole wide|world, And *|teach of Christ to men un-|done; Till|
w: 3.~To *|those that work, the blest re-|ward, As *|stars they shall for- ev- er|shine: “When|
 [Fd]3 [Fd]!<(! [FB]2!<)! [Fd]2 | [Fc]2 [Fc]2 [CA]2 (FG) | [FA]>[FA] [FA]>[FB] [EA]2 [EG]2 | F6 || %9
w: sheaves of good for|Christ the Lord, From *|out those earth- ly fields of|sin.|
w: He shall ev- ery-|where be known, And *|ma- ny souls to Him be|won.|
w: I shall all My|jew- els count, In *|that glad day they shall be|Mine.”|
"^Refrain" [_EF]2 | [DF]3 [DB] [DB]2 [_DF]2 | [CF]3 [FA] [FA]2 [FA]2 | %12
w: |||
w: Go|bring them in, go|bring them in, The|
w: |||
!<(! G2 [Gc]2!<)! [Gc]2 [F=B]2 x8 | [Ec]6 [Fc]2 | [Fd]3 [Fd] [FB]2 [Fd]2 | %15
w: |||
w: souls for whom Christ|died; Tell|out the news, the|
w: |||
 [Fc]2 [Fc]2!<(! [CA]2 (FG)!<)! | [FA]>[FA] [FA]>[FB] [EA]2 [EG]2 | F6 |] %18
w: |||
w: bless- èd news, Of *|our Re- deem- er cru- ci-|fied.|
w: |||
V:2
 C2 | x8 | (F2 D2 C2) F2 | x8 | x8 | x8 | x6 F2 | x8 | F6 || x2 | x8 | x8 | G2 x14 | x8 | x8 | %15
 x6 F2 | x8 | F6 |] %18
V:3
 [F,A,]2 | [F,C]>[F,C] [F,C]>[B,,D] [C,C]2 [C,B,]2 | (A,2 B,2 A,2) [F,A,]2 | %3
 [F,A,]>[F,A,] [F,A,]>[B,,B,] [C,A,]2 (G,C) | C6 [C,A,]2 | [B,,B,]3 [B,,B,] [D,B,]2 [B,,B,]2 | %6
 [F,A,]2 [F,A,]2 F,2 (A,B,) | [C,C]>[C,C] [C,C]>[C,D] [C,C]2 [C,B,]2 | [F,A,]6 || [A,,C]2 | %10
 [B,,B,]3 [B,,B,] [B,,B,]2 [B,,B,]2 | [F,A,]3 [F,C] [F,C]2 [F,C]2 | %12
 [E,C]2 [E,C]2 [D,D]2 [G,D]2 [C,C]6 [F,A,]2 | [B,,B,]3 [B,,B,] [D,B,]2 [B,,B,]2 | %14
 [F,A,]2 [F,A,]2 F,2 (A,B,) | [C,C]>[C,C] [C,C]>[C,D] [C,C]2 [C,B,]2 | [F,,F,A,]6 x2 | x6 |] %18
V:4
 x2 | x8 | F,6 x2 | x6 C,2 | (F,2 E,2 D,2) x2 | x8 | x4 F,2 D,2 | x8 | x6 || x2 | x8 | x8 | x16 | %13
 x8 | x4 F,2 D,2 | x8 | x8 | x6 |] %18

